X:695
L:1/16
M:2/4
K:C
 ef |:"C" g2c'2 b2a2 | g2ea g2ag |"G7" f2df b2gb |"C" d'c'ba g2ef | g2c'2"F" b2a2 |"C" g2ea g2ag | 
"G7" f2de fgab |"C" c'2c'2 c'2ef ::"C" g2e2 a2>g2 |"G7" fGBd G4 | f2>B2 b2>a2 |"C" gceg G4 | 
 g2>e2 c'2>b2 |"F" aefa d2>c2 |"G7" Bcde fgab |1"C" c'2c2 c2ef :|2"C" c'2c2 c2 z2 |]

